actions/16/view-financial-account-investment-security.svg

<svg version="1.1" viewBox="0 0 16 16" xmlns="http://www.w3.org/2000/svg"><style type="text/css" id="current-color-scheme">.ColorScheme-Text { color:#eff0f1; }</style><style type="text/css" id="current-color-scheme">.ColorScheme-PositiveText { color: #27ae60; }</style>
    <path d="m9.001953 1.9980469-4.001953 4.0019531h-1.996094v1h2.410156l3.589844-3.5898437 2.123047 2.1230468 0.0059-0.00391 0.0039 0.00391 2.828125-2.828125c0.0029 5e-3 -0.707066-0.7070312-0.707066-0.7070312l-2.125 2.125-2.126953-2.125-0.0019 0.00195z" fill="currentColor" class="ColorScheme-PositiveText"/>
    <path d="m2 2v12h12v-2.132812c-0.958201-0.953844-1.913095-1.9111424-2.869141-2.867188l-0.0039 0.00391-0.005865-0.00391-2.1230471 2.123047-3.1230469-3.123047h-2.875v-6zm1 7h2.4609375l3.5351563 3.535156 0.00195-2e-3 0.00195 2e-3 2.1269532-2.125c0.866385 0.866164 1.726997 1.737981 2.607428 2.589844h-10.734375v-4z" fill="currentColor" class="ColorScheme-Text"/>
</svg>

<svg version="1.1" viewBox="0 0 16 16" xmlns="http://www.w3.org/2000/svg"><style type="text/css" id="current-color-scheme">.ColorScheme-Text { color: #fcfcfc; }</style><style type="text/css" id="current-color-scheme">.ColorScheme-PositiveText { color: #27ae60; }</style>
    <path d="m9.001953 1.9980469-4.001953 4.0019531h-1.996094v1h2.410156l3.589844-3.5898437 2.123047 2.1230468 0.0059-0.00391 0.0039 0.00391 2.828125-2.828125c0.0029 5e-3 -0.707066-0.7070312-0.707066-0.7070312l-2.125 2.125-2.126953-2.125-0.0019 0.00195z" fill="currentColor" class="ColorScheme-PositiveText"/>
    <path d="m 2,2 c 0,0 0,8 0,10 0,2 2,2 2,2 H 14 V 11.867188 C 13.041799,10.913344 12.086905,9.9560456 11.130859,9 L 11.126959,9.00391 11.121094,9 8.9980469,11.123047 5.875,8 H 3 V 2 Z m 1,7 h 2.4609375 l 3.5351563,3.535156 0.00195,-0.002 0.00195,0.002 2.1269532,-2.125 C 11.993332,11.27632 12.853944,12.148137 13.734375,13 H 4 C 4,13 3,13 3,12 3,11 3,9 3,9 Z" fill="currentColor" class="ColorScheme-Text"/>
</svg>
